X: 1722
T: Monymusk
C:Daniel Dow (1732 - 1783)
B: australian traditional tunes wiki
M:4/4
L:1/8
R: Step Dance
Q: 1/4=100
K:G
V:1 
e|"G"d>G B>G d>G "C"c>e|"G"d>G B>G "D7"A>B c>e|"G"d>G B>G B>c d>g|"Am"e>c "D7"A>d "G"B<G G>d|
"G"g>d B>d g>d B>d|g>d B>d "D7"c<A A>d|"G"g2"D7"f2"C"e2"D7"d2|"Am"e>c A>c "G"B>G Gz||
% abcbook-tune_id 6342d53a155c581c2b354c17


% abcbook-boost 0
% abcbook-tablature 
% abcbook-transpose 
% abcbook-lastupdated 1665324380080
% abcbook-soundfonts 
% abcbook-repeats 1
% NFF Book 2019
% Bush Traditions recording played by Ray Mulligan

